style/icons/shield40_eu_cz_prim_2.svg

<?xml version="1.0" encoding="UTF-8" standalone="no"?>
<svg
   xmlns:dc="http://purl.org/dc/elements/1.1/"
   xmlns:cc="http://creativecommons.org/ns#"
   xmlns:rdf="http://www.w3.org/1999/02/22-rdf-syntax-ns#"
   xmlns:svg="http://www.w3.org/2000/svg"
   xmlns="http://www.w3.org/2000/svg"
   xmlns:sodipodi="http://sodipodi.sourceforge.net/DTD/sodipodi-0.dtd"
   xmlns:inkscape="http://www.inkscape.org/namespaces/inkscape"
   width="33"
   height="20"
   viewBox="0 0 33 19.999999"
   version="1.1"
   id="svg5095"
   sodipodi:docname="shield40_eu_cz_prim_2.svg"
   inkscape:version="1.0.2 (e86c870879, 2021-01-15, custom)">
  <metadata
     id="metadata5101">
    <rdf:RDF>
      <cc:Work
         rdf:about="">
        <dc:format>image/svg+xml</dc:format>
        <dc:type
           rdf:resource="http://purl.org/dc/dcmitype/StillImage" />
        <dc:title></dc:title>
      </cc:Work>
    </rdf:RDF>
  </metadata>
  <defs
     id="defs5099" />
  <sodipodi:namedview
     pagecolor="#ffffff"
     bordercolor="#666666"
     borderopacity="1"
     objecttolerance="10"
     gridtolerance="10"
     guidetolerance="10"
     inkscape:pageopacity="0"
     inkscape:pageshadow="2"
     inkscape:window-width="1504"
     inkscape:window-height="981"
     id="namedview5097"
     showgrid="false"
     inkscape:zoom="6.5085965"
     inkscape:cx="33"
     inkscape:cy="20.000393"
     inkscape:window-x="0"
     inkscape:window-y="0"
     inkscape:window-maximized="0"
     inkscape:current-layer="svg5095" />
  <path
     d="m 3.14285,1.7114111e-4 h 26.7143 A 3.1104,3.1103468 0 0 1 33,3.0770185 V 16.922931 a 3.11045,3.1103968 0 0 1 -3.14285,3.076898 H 3.14285 A 3.1104,3.1103468 0 0 1 0,16.922981 V 3.0770185 A 3.1104,3.1103468 0 0 1 3.14285,1.7114111e-4 Z"
     fill="#01498e"
     id="path5089"
     style="stroke-width:0.499996" />
  <path
     d="m 3.14285,0.46171324 h 26.7143 A 2.6439,2.6438548 0 0 1 32.5286,3.0770685 V 16.922981 a 2.6439,2.6438548 0 0 1 -2.67145,2.615355 H 3.14285 A 2.6439,2.6438548 0 0 1 0.4714,16.922981 V 3.0770185 A 2.6439,2.6438548 0 0 1 3.14285,0.46171324 Z"
     fill="#ffffff"
     id="path5091"
     style="stroke-width:0.499996" />
  <path
     d="m 3.14285,1.5385948 h 26.7143 A 1.555,1.5549734 0 0 1 31.4286,3.0769685 V 16.922931 a 1.555,1.5549734 0 0 1 -1.5714,1.538424 H 3.14285 A 1.555,1.5549734 0 0 1 1.5714,16.923031 V 3.0770185 A 1.55535,1.5553234 0 0 1 3.14285,1.5385948 Z"
     fill="#01498e"
     id="path5093"
     style="stroke-width:0.499996" />
</svg>

<svg width="33" height="20" version="1.1" viewBox="0 0 33 20" xmlns="http://www.w3.org/2000/svg">
 <g stroke-width=".5">
  <path d="m3.1428 1.7114e-4h26.714a3.1104 3.1103 0 0 1 3.1428 3.0768v13.846a3.1104 3.1104 0 0 1-3.1428 3.0769h-26.714a3.1104 3.1103 0 0 1-3.1428-3.0768v-13.846a3.1104 3.1103 0 0 1 3.1428-3.0768z" fill="#01498e"/>
  <path d="m3.1428 0.46171h26.714a2.6439 2.6439 0 0 1 2.6714 2.6154v13.846a2.6439 2.6439 0 0 1-2.6714 2.6154h-26.714a2.6439 2.6439 0 0 1-2.6714-2.6154v-13.846a2.6439 2.6439 0 0 1 2.6714-2.6153z" fill="#fff"/>
  <path d="m3.1428 1.5386h26.714a1.555 1.555 0 0 1 1.5714 1.5384v13.846a1.555 1.555 0 0 1-1.5714 1.5384h-26.714a1.555 1.555 0 0 1-1.5714-1.5383v-13.846a1.5554 1.5553 0 0 1 1.5714-1.5384z" fill="#01498e"/>
 </g>
</svg>
